mimetypes/scalable/encrypted.svg

<?xml version="1.0" standalone="no"?><!-- Generator: Gravit.io --><svg xmlns="http://www.w3.org/2000/svg" xmlns:xlink="http://www.w3.org/1999/xlink" style="isolation:isolate" viewBox="0 0 256 256" width="256" height="256"><switch><g><g id="application-mimetype"><g opacity="0.2"><path d=" M 78.924321 15.500025 C 43.627596 15.500025 39.829708 19.125398 40.002695 54.49353 L 40.002695 127.500014 L 40.002695 200.506441 C 39.829708 235.874573 43.627596 239.500004 78.924321 239.500004 L 177.081083 239.500004 C 212.377805 239.500004 216.002702 235.875035 216.002702 200.506441 L 216.002702 127.500014 L 216.002702 54.49353 C 216.002702 19.124994 212.377805 15.500025 177.081083 15.500025 L 78.924321 15.500025 Z " id="path1163" fill="none" vector-effect="non-scaling-stroke" stroke-width="4" stroke="rgb(0,0,0)" stroke-linejoin="miter" stroke-linecap="butt" stroke-miterlimit="4"/></g><defs><filter id="5G4S759ytiqzFXC4TBcJP6y4ljFJ5LaD" x="-200%" y="-200%" width="400%" height="400%" filterUnits="objectBoundingBox" color-interpolation-filters="sRGB"><feGaussianBlur xmlns="http://www.w3.org/2000/svg" stdDeviation="2.120027"/></filter></defs><g opacity="0.1" filter="url(#5G4S759ytiqzFXC4TBcJP6y4ljFJ5LaD)"><path d=" M 78.924315 16.5 C 43.627592 16.5 39.82971 20.125416 40.002699 55.493531 L 40.002699 128.5 L 40.002699 201.50647 C 39.82971 236.874573 43.627592 240.500001 78.924315 240.500001 L 177.081083 240.500001 C 212.377806 240.500001 215.084425 236.863068 216.002699 201.50647 L 216.002699 128.5 L 216.002699 55.493531 C 216.002699 20.124997 212.377806 16.5 177.081083 16.5 L 78.924315 16.5 Z " id="shadow" fill="rgb(0,0,0)"/></g><defs><filter id="vP8jkahgqyUov2OsjcRSPmvIMOVUen1l" x="-200%" y="-200%" width="400%" height="400%" filterUnits="objectBoundingBox" color-interpolation-filters="sRGB"><feGaussianBlur xmlns="http://www.w3.org/2000/svg" stdDeviation="8.4801079"/></filter></defs><g opacity="0.3" filter="url(#vP8jkahgqyUov2OsjcRSPmvIMOVUen1l)"><linearGradient id="_lgradient_56" x1="-0.0681490711308741" y1="0.03125" x2="0.9537210324437329" y2="1.0531201035746074" gradientTransform="matrix(176.005396,0,0,224,39.997303,16.5)" gradientUnits="userSpaceOnUse"><stop offset="0%" stop-opacity="0.58823532" style="stop-color:rgb(0,0,0)"/><stop offset="88%" stop-opacity="0" style="stop-color:rgb(0,0,0)"/><stop offset="100%" stop-opacity="1" style="stop-color:rgb(0,0,0)"/></linearGradient><path d=" M 78.924315 16.5 C 43.627592 16.5 39.82971 20.125416 40.002699 55.493531 L 40.002699 128.5 L 40.002699 201.50647 C 39.82971 236.874573 43.627592 240.500001 78.924315 240.500001 L 177.081083 240.500001 C 212.377806 240.500001 216.002699 236.875001 216.002699 201.50647 L 216.002699 128.5 L 216.002699 55.493531 C 216.002699 20.124997 212.377806 16.5 177.081083 16.5 L 78.924315 16.5 Z " id="blur" fill="url(#_lgradient_56)"/></g><path d=" M 78.924321 15.500025 C 43.627596 15.500025 39.829708 19.125398 40.002695 54.49353 L 40.002695 127.500014 L 40.002695 200.506441 C 39.829708 235.874573 43.627596 239.500004 78.924321 239.500004 L 177.081083 239.500004 C 212.377805 239.500004 216.002702 235.875035 216.002702 200.506441 L 216.002702 127.500014 L 216.002702 54.49353 C 216.002702 19.124994 212.377805 15.500025 177.081083 15.500025 L 78.924321 15.500025 Z " id="shape" fill="rgb(205,205,205)"/><path d=" M 128 72 C 112.488003 72 100 84.487999 100 100 L 100 128 L 86 128 C 86 146.666669 86 165.333324 86 184 C 114 184 142 184 170 184 L 170 128 C 165.333324 128 160.666669 128 156 128 L 156 100 C 156 84.487999 143.511997 72 128 72 Z  M 128 79 C 139.633998 79 149 89.926999 149 103.5 L 149 128 L 107 128 L 107 103.5 C 107 89.926999 116.366002 79 128 79 Z " id="lock" class="ColorScheme-Text" fill="rgb(128,128,128)"/><g opacity="0.6"><path d=" M 78.924573 15.500025 C 43.627848 15.500025 39.829708 19.126032 40.002695 54.494165 L 40.002695 56.494138 C 39.829708 21.126005 43.627848 17.499998 78.924573 17.499998 L 177.080824 17.499998 C 212.377545 17.499998 216.002702 21.125601 216.002702 56.494138 L 216.002702 54.494165 C 216.002702 19.125571 212.377545 15.500025 177.080824 15.500025 L 78.924573 15.500025 Z " id="highlight" fill="rgb(255,255,255)"/></g><g opacity="0.1"><path d=" M 128.002691 15.500025 L 128.002691 239.500004 L 177.080824 239.500004 C 212.377531 239.500004 215.084421 235.863501 216.002702 200.506787 L 216.002702 127.500014 L 216.002702 54.493184 C 216.002702 19.124648 212.377531 15.500025 177.080824 15.500025 L 128.002691 15.500025 Z " id="right highlight" fill="rgb(255,255,255)"/></g><g opacity="0.4"><path d=" M 156.002703 239.500004 L 216.002702 179.500005 L 216.002702 201.983857 C 215.950394 235.97965 212.200019 239.500004 177.828601 239.500004 L 156.002703 239.500004 Z " id="clip" fill="rgb(255,255,255)"/></g></g></g><foreignObject requiredExtensions="http://ns.gravit.io/"><gravitDesigner:gravitElementRef xmlns:gravitDesigner="http://ns.gravit.io/" xlink:href="#OJt5vX9QD2dlvVvK3sgcLIMp3CMMyj9v"/></foreignObject></switch><gravitDesigner:gravitGraphicSource xmlns:gravitDesigner="http://ns.gravit.io/" id="OJt5vX9QD2dlvVvK3sgcLIMp3CMMyj9v" version="1"><![CDATA[eMKcw41aaXPDoljCssO9KxPDtMOEw7vDpMKuw5HCvlRER8KMAEloAy3CgMKEw5odL8K0S2jDn8KFOsOqwr8/woHDgRh3VcKPa8Kmw6d1w5vClg3Cl8Kbw6dmwqYyw4/DjcK8w7LCr8Kzf8OOPsOPCivDsGZPwrPCv8OPPsO/w7zDq2UgwqjDssK2eBgpwqwmwpwGwpwkwq89d8O2wrnCqVrDr2lWNMO1NMOhw6cZbG0SRS04ayfDvTRNw7phwroCw4wGwo7DvsOcOMKtOcOJZsK2wqHClQfCrSzDrzPCnhJyw4PChsKlacOKasK6fMK3Bl8lf3nDunlGc1LCqsOsNsKmA8K8QinDvihEwpXCjxnDrcOJDCV5NGQFwojCqEPDpsKZwonCv8OgEHjCmnJWLSHCnETCsWLDksKKw59CwqkoGMOcwqF4w5bCgsK6AjnChMOECcOCwpZWw5cufQnCh8OqdcKYw49DbynDknc5M3fCj3drw6IDw5AfDcOHX8OJQmZ1w5bCmsKETk5KwpNqw4fDosO6w4HDgcKHwqs1FxV0X8KMb8OWXBzCo8KRbBzCv0LClU7CukcdWhXClMOUO8KOwqFsDkjCqyXCmsKRYQwtw6/CosOgasONw4UxN8OJCxQuYUrDtABFw6xwPisWKcKVw7JLwrBSYEnDoXRbB8KVAcORD8OaCVxewrXDggM0eMKVPEMtwrzDvVEpHgxswqjCk2jDisKcUx3Dl8K2Zg82Q8K4w6PDgUnDkcK0M8OowqLCr8KdwqtWF8OJwrTCuxt4GQgffDxwwoE5ajrCsDrCoXs7W8KWwoZAw5jClMOaGMOUasOHYUNfw5zDpcOiwofDm8OsQTDDoWHDqsKcTMOQPEsPwqPClhsCw6PCjVXCvjISw7BEw5BXay7CkiV3wr/DjRfDh8KED8OBN1cXW8KGAnl5w5PChsKDw6wpw65cw6Q4Q1VJQsKTwqRdEl3CrcK5OMOmJsO5w4svT8Kzw4rDs8KbwqHCmX3DjsOaJMK5wrzCszInw4zCq3PCkE/CnzbClT/CvcKAP8OhOMKJQjjCgmEAworCkDDCgj4Bw5PDt8OXwoY/YRgJYiABw6AEDk7Dn08/EhjDtgkkERjDgyAIwoNBEsKfYDMrw7XCrgkGwoLDmDnCmsO/wrduw7Jiw7YZw7gETcKvE8Orw6TCnTXCuMKlYcKUNcOiw4vDkMObw7TDtMKjJMKRXz87YxTCkx3Cs8OFDz/Cn8KVA345wo90E8KKbyXCtcO3w6XDqUXDiMOOK8OXwqsew4XDrH7DthnDvkRewr5ww6DDpQvDh8OOHyTDjlnCpG3CmsOLwrQ0wpl9Rn7Cu8OMwpfDicKgw7/CmUYcwprCo1pTw4sCbCTDi8KQwrZ2woAHw7JlHWHCmcOqw4lddMKYfcKZZD3Dn8OnJi7CmcKpw4JWw7JMwrLDksK1KhjDmAVqwrnCikAMw7PDgMOswqgTw6jCrMKBw5lNw6HDnyfCocOGIcKVwp7CohLCmsK7w4XDgRFZwpERPihHwpxDKB5mw7Vmw4skOwPDl8O9bUglAXYNKXTDtcKPVgnCrsKSw6fCkMKiwqhlwqBUS8KCwrlHZ8OOw5nDqcK+Mg9hw4wLw5jCtjViwp0NfCwcIsKIXTlGwqZfQwrCpnFfSSEqwo/Dn0LCncKxw6/DkcOJQMK0VkrDqcOea33DpWhqwpvDhMKNYQ1Zw4nCmcKHwoTDvjIiw69yZTDCh8OfMEdow6ZhdMOoFcK+wq86aMKBOMKRBMOHC3nCoww1H3Urw65qw41FwoVOw6goWsK5JsOIw4UxC8KKworClRvDlAYPYG4BbcKNwqbCoMOEbsOBw7vCmwNZZsOmMsK3wqJtw4LCjcOUw5XCmhfDh1wlL8OUwqhuw6fDr8KgEsOqWArCqcKzwq7Dh8OlXB/CtsKrwqUpwofDjTbCr8O7UBXDm8Otw47Cv2o1wofClsOxwqvDpMOVw4Bcw4EeDMOswpByBWRYwqYXwo7Dj8Kse8KQwofDnH7DqcKdBGhMwr3CtcKGJcK3wrTCnW8zBU7Dm1cDL1DDvcKDwo8Vw5xbEDjCpQ3CulELYMKXCMKww4wyw5t9wo3Ck8OHWMOmA8O3LsKHP8Ocw6bCssOYw6DCrUUtw6PDqsOEJmsRw5nDksKtwpwpRxtCwqIDI1LDscOVwprCi8OkP8OIf8K8w57DphfDhzwEwp8hVkM2Lgw5DMKBwqPCjMOpw4Umw4pyGsKMSDxgO8K9wr5Fw4zCi2Nuw4HDt0ESAj7CocOXw5wEwqAzw6vCoMOYwoXChMK+MsO8I8KITsOZwozDgwAIQBgIQQQIP8O9CAHCn8KQS8KGYzACwqITVyF3HsKqQ8OLw43Du8K3LATDvnEsw7TCr8KYB8O8dMOTH0BJAEVBw6jDg8OMw7NAcFcWUhtfYWgrDsKzwpVqHcKzwo3DpzPCqGXCs8Odw57Dm8OywrDClcOBNxbCusOZNcK9w7TCnMOmw5EmO2krw7oyPg1Xw5PDksKfSBjDh2DCmDzCkzrChsKDwrfCtcKkwpRjSzYxVsOhWgLDm8Kaw6PDkzrClh0xwpLCnVAOw5jCnMKffcO5d1lswrAoXMOaCyQRaT7DrcK0eMK4CsOQwrICfMOWccODw5ANbxvDo0dYwqwgUE7CgBbDh8Kxc2kEdhlgw4wXXcKdZkk/X8Kew7DDoMOwHSwWO8OFwqnCnjNuLcK5Qk50VTB2w5bCvMOCW8KSD8KLNcORwqDDn2LCsQ4IRg7Co8KXwroXw4fCvcKBK8KJw61FexPDt8OjCGDCkMOQDsK/woPDhQg7XRM9wpx3bsKiwoFpwpHDh8KMwqtSwrsSw7Jhw5rDtBXDm8O7DhbCo8K2J8KuGsKaw5NaUHPDqcOYwodYAsOuJcOiwrAFARvDpMO3FcOzHSwmwoDDu8KgLS3DlVgOw4QCHMKpwrUXLMO5I8Ogw5Zuw5VNfCJdwrV6IcKtRcO/eyzCtsOBwrwuW8OvwrvCncK3w6nCqsK1PMOOwqM8WsOFYMOkw6tZwqrCgsKAw7wtFhvDicKxbcOcbl/CqMKywpPClgfCgMOQwpdBA1nDkGLCu3LCosKyLMK+woPDhRDCmxBiwrPClcKpTWzCs8ORw77CpMKRwpxZAXXDn8OuDS4Hwo7DnF/ClMOFw45Zw7vClsODw6APc8OYf8KbwprCnn7ClyrDhR9+fcKew5XDj8Onw6UQBAURCEVJBCUIwoAgwp7CnmfDvjB9w7Ijw7AJw4AIECEBHARhwoDDgBHDsMO8w5HDqcO5bCcAwoMQOsK9PU/DvHnCgirDjsKjw5N7Z8O6w7t8V8OpeTbCjcOlF8KJCRzCglEYwpoUwrtOw790WcOrwpsSwq8Tw4HDn8KZdcKmw4XDp1l1VhfCncOuEn4mSwTDhgkIwoTCiS/Cr1Viwp0rwoTClicGAmcCb8KHw4rDkjh6w4ZKcFvCvsOiwpXCvcKbw707w7wMwpLCn3AUQGF0w7IRwolBKMKCw51WM8KVemnDlC51NB0FAxfCmMOawpzDuHHDpcOyBicCw57CocOafcKUwqF/w5vDrMKuIF7CgcK5wowwe0kwwrcBw5HDu8Klw6RQDjpKw7sjWMKpwrc6w7Mjw43CrsKXw7VBZhBEwrlEwrfCq8KMwrQ3O8KXGlomwpMhwqtUw7V1PMO7eMKzGw3DgMOgZcKLwrkjwrt1YcKVWWDDhcKCRjdMLMKgYcOuwrXDnsK3wppdw4hGw4hEByDDjWUNwpjCocKQw5jDncK0w6zDjikDXsKAw5ldw6TDjj7DnsOsVnzDlm7Du8OxwqgewqXCgsKHSsK3OHh0w6vDrUdvw41jWF0OwrPCjzfCuyXDjzHCnsKHACkgw6IIacOLwr1vw6VBwr7Cn8KXwq3CocKuYBLCnn3CvMOZwo3Cl11ECgQRV1vCinQHXVjDscK9w6ZlwqzCosOQLUBjw4DDrMOjw43CrsObYMOqSQ/DoiFIwpXCnGLCoMKyw5ZGN0HDkl3CpyrCrsOOw5LDn2p2wodIOMKJwqgqeGYGw4kGwoZGEw3ChCvCnF4Bw7LChsObw5nDhMOsw6PDjcKuwp1Ewrs9wrfDhcKrAsOcwrMewqpJw6bCgsOQw4BcJMOXwpzCviQxY8O2F2x2wqciwrM4b8OPw79xXQkBw6jDk8O1wro3wp9FBsOhwplfw7diZVrDiMKww5/DkFgOGSUVE0xlHsOVecO9w5B8wqYQE0dMXTlAw4dQwqh0QMK7BQIgwrgbZsKGw5Aow7XDtsK1ZnXDssKpw4RoM8O3Sg7Dv8KswrvDgGrCmhfDpcKdw4TCqsOrwrNGecKSV8KaE3rCqcO3w6PDlsKbwrw7wq3DpHVewpbCu8OuwpXDv8KfLsOkcnbDsmzCosORf17DqMOzPHJhw44Xw4J5wr4yw47Ds8KZcsOOPMO+w7PDs8K0VVPCvcKiUMKUQlM/XcKmw75ww7lNLAo6wrPDm2MSdMKxwod7UwkTw6FuesKaw74ww77DusK0wpcvwpNewrDCu8KVwrp9QFhdfsKrXC3DncKHwqcQe34pw5rCpgXCkcOHwrXDpsOmwqHClDrDiwjDt8KDM2XClMOHWjrCrsKGZsKKE0d7wrvCs8ONN2tdEDhHT3fCvwHClWjDui1oF8KCFsOgwq3CmhMDw6TCgsKRHMKyLsOyw7NgdzImNiXDpyjDuirCvcO4wpo0wooiJ0bDgCMnOsKJw7Mgw7AWwotiwrFbwqfClkUcw4TCg8KlWm/DrMK8IAhtwqnDh8O0T8OvQMOTR8OQdSPDpycVJMKBPFTCqcO1w4oPwrYtwpERwrvDuQjCgcOZw6EoYQ92wp5Bw4sywojDqcKfHsOWwqLClMKzT1/CgG9rccO3wqHDl8K1MsK8bcOmRMOsVMOiCT8UOwjDm2nCtcOow4E5OxHClMKYK8O5w4Naw7NvwoHCvsOzwoocTnnCtHXCq2UaGcOgasObw69VwrvDk8K2ZB3DtAbDqsOHw4vDuRtNw4vCslzDnBHCrsKgw7PDvivCoBIBWcO1XAwrw45iw4TDgcOTwoh9bTZ7wrPChnEAAMKJwpB4wqNpwokVw5g3QMOfwoXDlMOow6TDo8K0XxrDlMOxNGcPwqxuY31tKcKSBW02HcKsHcOdB8KfTgjCh8OXwpDCulQXFwJ7wr4yw5jDsxsKe8K+cMOYw7PCmcOEw44vw7ELacOhTyg4w73CnMOHw4/CtMODwrnCl8OcwoPCvAbDqm3CsMKFwpsKw40GEMK1w7DCg8KiwoXCugvClBZ7XMKiw7vDi8OiL2RxwpnCv8KFdTfCr8OMJVUsQsK1wq7Cuj7Cm8O6DmsJwpI+w6XCr2JkWsOvw4tEDsO/TmoHwo/CvlkrwrhgwrvDlW7CjiTDhwIDw5wVDcKfw6YaOi9LwpbCn1rCscOmwo3Dgx0ow5g/IMK8wrjDrGjCusOCfcO4dh/CgsOzEMOxwrgWwrIIIBfCkxdQw5Vta8OPQyl2YcORwoDCqhwQwpzCmsOHXMOzGMKGwoFiw5tjwr3Duw3DqMK7wojCgQHCmcOcYGrDm21Jw4U+EBLCqMOhw4XDqnjDpMO1w41Gw4HDsnHDvSp9w47ClsOfSC/CgFQTSXDDhcOCw7TDnBkHcUl5w4wewowbYcOBLjsXRMOeScK/MyjDqFBUwotOHlNtw7XCgcKFw4lIw6nCi8KtwpwPw4law67Cjx7DhD8mK8O1w4bCoD8swrDDiCHCmSciBcOLwptEF3Y9wrwfw7TDk2AQGWBnSW7CpsOjw7vDgEIDIsKTw6DDmiBXQcKfe0kWwrliw5IHwpvChsKMwpbCjHrDosKzc2DDvcOywq19w7rCnSLCt202w4nCncO4wo/DmGVBwoh4wrpew7ddwrYrNyAbOlIrw7fDtcKUwrhBNnHDsFxxRcK7aMONwozDkRbCj8K7wqzDp8KDwrXDl8O1wrDCuRvDkcOMw6LDlcK5QArDgsOWw4RbwrXCsFvCj8O+w5gRLyVow69Lb2hzLBIpbsOjw6MJwrJcwrbCkMKBw4pOVMKiwoDDoVQBw7HCvXwtwqR6w7LCq8KlN8O2wrYmw6vDqsK5ZUZZGcKgwo7DocKGTSDCucKaTDAYScKGGCNxw6XDum3DqW0rw69Kb2cXwrjDtCvDlFLCgcO5JRnCiwnDpMOawoDDqB87RDgZR8O3wojCnhDCp292wpvCtyXCtMOWMcKvUBcDw43ClcO8w4ZAwrAfwrRFQznCkcKlIMOTMsKdwoXDmMOCCMOTbMKaYsKDD8Oow71VwqvCi8KBN8OJM8OUaE/ClWLDsQBFRsOJwqJVM8Kaw43CuMKxFMKHExLCiS3Dm2rDpjxyw5PCocKuDsK3wqMXasKqFMKLN1DClyrCtH4wcMKTwq/Ct0vDncKKwrfDqw06w5J7w5h2w5xUwpTCjQAUw6Blwpcdb0/CsS7CksORw7Zuw6BLKcO8w6B2fS4Kw412wq7Dq8K5LCR6LAl6asO0MFluI8KRY8KPfMOwUArDt3fCt18MfCzChcONTHXCq3bDhUvChwRIUHd9YDzDviAbCMK2WG3DncK4ez3DnsKiw75CwqVwGAVhMl3DjcObw6MKw6zCjyjCjcORwqksfsK5w77DtcOBK3B9w6RDQi9nLyDDuR8dwrzChltkwrUUwpjDniHDhMKKPzJhbAzDjcKewpZYGcKHJcOqw6jChA/DnMOQw5TCjSxOZcKUBcKYUcKJwpDCrF4swqNRN1bDmQE+w7FmInzCjBvDkMKaY8OfwoXDg8KowoFcPMOaw7vCjEAowovCssKHNcOaworDu8KMw5nDg8K+woTCrsKCMsK5woTDkUXDrsKxw5VsVnPDhsOSw5Y8IlrCiArDmUrCicOxwp3CoMOuT8KQKsKIwq1oO8O3w7B7wpQDK8KtOHYsVlhpegDCoFLDjsO8chXDkAR6w5rDkQArw53DsgvDqsK/w5rCogJvW1RVwovCkCBhwpXDk8KiFMK0wpE7w45jZsKgw5bDnsKaw5wXBFUlwrdjN8K5HSIlw7B/wr9FBQHDksKsAsKXNcOBXWrDkcKswqXCoHPCocOwwoACVS0yXlh3wrkjw7Q2L31fW3fCo8OpRsK4KsKtHMOFw6rDh0zDtmDCuMOcYiwMwprDgsO2bV4Wwr/Cn8KXB3Y4wobCpsKocUUCwollwrPDskjCgys4GMKLGyzDgcK2B8O1asONw4Uxf8KVwrzCrMOOOcO5wrfCr2bDpx/DsUDDpMOPw4zDjsKdX8KhWsK1VFnCiUVXCD3DgsOEwoJaw4JLOcKlwpbDlsOaX8K0D8OZWcONbR5ZwoF+aSVrRVIIwrTClMO9NcKwYsO4w5XCscKjN0vDv2PDmcO5wpXDoylhw5/Cu34Aw5MoWcOvTcKeMAXDnyEQVyxTAkISc8OOwr45wp56SMKNHMObRykvwo3CvsKFcsK9bi1NccOtaMKswrxPw50Cw4JNIXk4wp7CqsOuwqlxw5lbH8KPwqdCIF5tJMKtwpozJ0bCt1gaQFEcH8KJw4pjezbDk8OKw5tBw5DCsH53PMO1wpXDnEc0w7tUe8OzHBPCmsOTwopWw7XCg8OawrQ4wohwwoPCmsOgScKDwqnDn8KRw7s8wr0zwqjCpcOpwovCkE7CocOgWMKiZcKYwo/CrMKiw7vCpnAww4PDk8OpO3J/w58Fwp7ClUBTdT/Dr8ObUQRPU2ccI8ONYEbCh8Kdw44swpI/L8OLwrrCqH49EcK5wp3DmcOnTcKTwqdfT8K5P8OiPyHDvsOMwpRbw7TCmcKkw6Ukw5LCuBHDpGtLw4xOCy3Dh8Odw4XCusKUw5xRw4TCoMKHwpRDw7XCgMOxfAHDoMOFw6HDmAJMw47CtcOzwpM1w4/ClTFyw63DkjM2H0vCucKFwr7Ci8OfBSnCs8OWSgrDosOXGsOOw5nDlMOOw7PCl8KYM8KXwovDriQ5GcKnwoTDscOuHkYRwqlHd8K5w4UeUcKcDMOMw6UBwqXCt8KywrzCoFdTwrM7w6jCpQVZXlZswpPCu1zCucKWw59Ew7ICG8OsaMOjwodWWhBTw5XCicOZXMODccKNwoEzSMKhwrTCmnx7wqoGwrvDplHDqcOsw41rJMKbGcKCwr9TPcObw5RAwqtlSSlWeWYQw7PCjcOEw6/CqcKGw5YswrRjNmvDuMO2Hws9wonDusO3w7zDusKTwrcQJ8KJworCt0HCjMO8fwcxfg1iw6TDpcK5FcKIw75HMcKcwpYpwpDDg8OCXm/ClU45w7jCkcOuUAHCjS/Cp8OSbkzDlsKsw6g9w4TCsMKAe0fCq3MiNXRUBF3CgxJCCifDhiw1wq9qKMO2UF3DmsOIw7/CrsO7wq3Cokgiw4dqwqI8w7sxwo1Swq85wr3CnDnDn1QMwoHCgcOZw65AdilQFsOHUyzCncKLwpvCnMO2woI6w6w4wqs8woQXFX84O2vCr8OqAVnDunQYwpPDqWpsamVNcMKgeFzCmCzCgMKEw7HCuRjCm8KcDcKhw5g5Bl/DvsOmw6fCh1bDpwjCs8KnDsO8wrc3bhrCv8KEw4TCq8KuwrIVeH8DZ1/Dvg/CuHEYfw==]]></gravitDesigner:gravitGraphicSource></svg>

<svg xmlns="http://www.w3.org/2000/svg" xmlns:xlink="http://www.w3.org/1999/xlink" style="isolation:isolate" width="256" height="256"><switch><g><path d="M78.924 15.5c-35.296 0-39.094 3.625-38.921 38.994v146.012c-.173 35.369 3.625 38.994 38.921 38.994h98.157c35.297 0 38.922-3.625 38.922-38.994V54.494c0-35.369-3.625-38.994-38.922-38.994H78.924z" fill="none" vector-effect="non-scaling-stroke" stroke-width="4" stroke="#000" opacity=".2"/><defs><filter id="a" x="-200%" y="-200%" width="400%" height="400%" filterUnits="objectBoundingBox" color-interpolation-filters="sRGB"><feGaussianBlur xmlns="http://www.w3.org/2000/svg" stdDeviation="2.12"/></filter></defs><path d="M78.924 16.5c-35.296 0-39.094 3.625-38.921 38.994v146.012c-.173 35.369 3.625 38.994 38.921 38.994h98.157c35.297 0 38.003-3.637 38.922-38.994V55.494c0-35.369-3.625-38.994-38.922-38.994H78.924z" opacity=".1" filter="url(#a)"/><defs><filter id="b" x="-200%" y="-200%" width="400%" height="400%" filterUnits="objectBoundingBox" color-interpolation-filters="sRGB"><feGaussianBlur xmlns="http://www.w3.org/2000/svg" stdDeviation="8.48"/></filter></defs><g opacity=".3" filter="url(#b)"><linearGradient id="c" x1="-.068" y1=".031" x2=".954" y2="1.053" gradientTransform="matrix(176.0054 0 0 224 39.997 16.5)" gradientUnits="userSpaceOnUse"><stop offset="0%" stop-opacity=".588"/><stop offset="88%" stop-opacity="0"/><stop offset="100%"/></linearGradient><path d="M78.924 16.5c-35.296 0-39.094 3.625-38.921 38.994v146.012c-.173 35.369 3.625 38.994 38.921 38.994h98.157c35.297 0 38.922-3.625 38.922-38.994V55.494c0-35.369-3.625-38.994-38.922-38.994H78.924z" fill="url(#c)"/></g><path d="M78.924 15.5c-35.296 0-39.094 3.625-38.921 38.994v146.012c-.173 35.369 3.625 38.994 38.921 38.994h98.157c35.297 0 38.922-3.625 38.922-38.994V54.494c0-35.369-3.625-38.994-38.922-38.994H78.924z" fill="#CDCDCD"/><path d="M128 72c-15.512 0-28 12.488-28 28v28H86v56h84v-56h-14v-28c0-15.512-12.488-28-28-28zm0 7c11.634 0 21 10.927 21 24.5V128h-42v-24.5c0-13.573 9.366-24.5 21-24.5z" class="ColorScheme-Text" fill="gray"/><path d="M78.925 15.5c-35.297 0-39.095 3.626-38.922 38.994v2C39.83 21.126 43.628 17.5 78.925 17.5h98.156c35.297 0 38.922 3.626 38.922 38.994v-2c0-35.368-3.625-38.994-38.922-38.994H78.925z" fill="#FFF" opacity=".6"/><path d="M128.003 15.5v224h49.078c35.297 0 38.003-3.636 38.922-38.993V54.493c0-35.368-3.625-38.993-38.922-38.993h-49.078z" fill="#FFF" opacity=".1"/><path d="M156.003 239.5l60-60v22.484c-.053 33.996-3.803 37.516-38.174 37.516h-21.826z" fill="#FFF" opacity=".4"/></g><foreignObject requiredExtensions="http://ns.gravit.io/"> </foreignObject></switch> </svg>
